X: 1
T: The Earl of Mansfield
C: J.McEwan
R: march
Z: John Chambers <jc@trillian.mit.edu>
B: Scots Guars p.130#228 (in D, with a 3rd part nearly identical to the A part)
M: 2/4
L: 1/16
K: A
|: cB \
| "A"A3B A2E2 | ABcd e2dc | "E7"B3c B2E2 | GABc d2cB \
| "A"A3B A2E2 | ABcd e2dc | "E7"d2B2 G2E2 | "A"A6 :|
[| ed \
| "A"c2A2 A2ed | c2A2 A2Bc | "E7"d2B2 G2B2 | G2E2 E2ed \
| "A"c2A2 A2ed | c2A2 A2Bc | "E7"d2B2 G2B2 | "A"A6 ed |
| "A"c2A2 A2ed | c2A2 A2Bc | "E7"d2B2 G2B2 | G2E2 E2cB \
| "A"A3B A2E2 | ABcd e2dc | "E7"d2B2 G2E2 | "A"A6 |]
